X:334
T:House of Achluncart, The
R:Reel
C:William Marshall
B:The Athole Collection
M:C|
L:1/8
K:C
c|c2c2 ecge|c2c2 gBGB|c2c2 ecgc|Bddc BGG:|
~c2 Gc EcGc|EcGc dDDB|~c2 Gc EcGc|fedc BGGB|
~c2 Gc EcGc|EcGc dDDf|afge fdec|Bcde dB G||

